svg/200/rounded/more_down-fill.svg

<svg xmlns="http://www.w3.org/2000/svg" width="48" height="48" viewBox="0 -960 960 960"><path d="M250.769-250.769h333.847q6.538 0 10.961 4.485T600-235.169q0 6.631-4.423 10.9T584.616-220H247.692q-11.769 0-19.731-7.961Q220-235.923 220-247.692v-336.924q0-6.538 4.485-10.961T235.601-600q6.63 0 10.899 4.423 4.269 4.423 4.269 10.961v333.847Zm200-200h333.847q6.538 0 10.961 4.485T800-435.169q0 6.631-4.423 10.9T784.616-420H447.692q-11.769 0-19.731-7.961Q420-435.923 420-447.692v-336.924q0-6.538 4.485-10.961T435.6-800q6.631 0 10.9 4.423t4.269 10.961v333.847Z"/></svg>

<svg xmlns="http://www.w3.org/2000/svg" width="48" height="48" viewBox="0 -960 960 960"><path d="M250.77-250.77h333.85q6.53 0 10.96 4.49 4.42 4.48 4.42 11.11 0 6.63-4.42 10.9-4.43 4.27-10.96 4.27H247.69q-11.77 0-19.73-7.96-7.96-7.96-7.96-19.73v-336.93q0-6.53 4.49-10.96 4.48-4.42 11.11-4.42 6.63 0 10.9 4.42 4.27 4.43 4.27 10.96v333.85Zm200-200h333.85q6.53 0 10.96 4.49 4.42 4.48 4.42 11.11 0 6.63-4.42 10.9-4.43 4.27-10.96 4.27H447.69q-11.77 0-19.73-7.96-7.96-7.96-7.96-19.73v-336.93q0-6.53 4.49-10.96 4.48-4.42 11.11-4.42 6.63 0 10.9 4.42 4.27 4.43 4.27 10.96v333.85Z"/></svg>
